X: 33938
T: Red-Haired Lass, The
R: reel
M: 4/4
K: Amajor
EAAG A2 cA|A2cA BAFA|EAAG ABce|faec d2cB|
EAAG A2 cA|A2cA BAFA|EAAG ABce|faec d2cd||
e2ae feae|e2ae cABc|e2ae fefg|afec d2cd|
e2ae feae|e2ae cABc|d2dB c3B|ABce faec||

